icons/GoogleDocsColor.svg

<svg width="16" height="16" viewBox="0 0 16 16" fill="none" xmlns="http://www.w3.org/2000/svg">
<path d="M4.19995 5.59998H12V12H4.19995V5.59998Z" fill="white"/>
<path d="M9.6001 4.79999L12.4001 6.03999L13.2001 4.39999L9.6001 0.799988L8.6001 2.47999L9.6001 4.79999Z" fill="#1967D2"/>
<path d="M9.60005 4.39999V0.799988H4.00005C3.32005 0.799988 2.80005 1.31999 2.80005 1.99999V14C2.80005 14.68 3.32005 15.2 4.00005 15.2H12C12.68 15.2 13.2 14.68 13.2 14V4.39999H9.60005ZM10 11.2H5.20005V10.4H10V11.2ZM10.8 9.19999H5.20005V8.39999H10.8V9.19999ZM10.8 7.19999H5.20005V6.39999H10.8V7.19999Z" fill="#4285F4"/>
</svg>

<svg width="16" height="16" fill="none" xmlns="http://www.w3.org/2000/svg"><path d="M4.2 5.6H12V12H4.2V5.6z" fill="#fff"/><path d="m9.6 4.8 2.8 1.24.8-1.64L9.6.8l-1 1.68 1 2.32z" fill="#1967D2"/><path d="M9.6 4.4V.8H4c-.68 0-1.2.52-1.2 1.2v12c0 .68.52 1.2 1.2 1.2h8c.68 0 1.2-.52 1.2-1.2V4.4H9.6zm.4 6.8H5.2v-.8H10v.8zm.8-2H5.2v-.8h5.6v.8zm0-2H5.2v-.8h5.6v.8z" fill="#4285F4"/></svg>
